X: 22226
T: La Croisette
R: reel
M: 4/4
K: Eminor
|:E2BE cEBE|ADDD FAFD|E2BE cBGB|CEGC EGFA|
E2BE cEBE|ADDD FAFD|E2BE cBGB|CEGC EGGA:|
B3d2dBA|G2A3AGA|BEEE GABG|CEGC EGGA|
B3d2dBA|G2A3AGA|BGGG EGGG|BGdG eGGG|
B3d2dBA|G2A3AGA|BEEE GABG|CEGC EGGA|
B3d2ded|B2A3AGA|BGGG EGGG|BGdG eGGF|

